!!!!SEGMENT: pl-wnifc--6730-n--018_sowinski-wojciech--chants-religieux-de-la-pologne-op-93-chant-du-matin-quand-l-aurore-au-matin-se-leve.krn
!!!cenid: 18xx:4032
!!!COM: Sowiński, Wojciech
!!!COM-rismID: pe30008543
!!!CDT: ~1803-1880/03/05
!!!CNT:
!!!GTL: Chants religieux de la Pologne op. 93
!!!OTL: Chant du matin/Quand l'aurore au matin se lève
!!!OMV: 018
!!!PDT: 1830
!!!AGN:
!!!SMS-siglum: PL-Wnifc
!!!SMS-shelfmark: 6730/n
!!!SMS-shelfwork: 001-018 G
!!!SMS-variant:
!!!SMS-altvar:
!!!NIFC-rismSourceID: 1001138221
!!!NIFC-rismChildID: 1001138240
!!!NIFC-islandoraID: nifc:213350
!!!URL-pdf-islandora: https://repozytorium.nifc.pl/islandora/object/nifc%3A213350/datastream/PDF/view
!!!URL-scan: https://polish.musicsources.pl/pl/lokalizacje/galeria/druki-muzyczne/16913 @EN{Scan on Polish Music Sources Website} @PL{Skany w portalu Dziedzictwo Muzyki Polskiej w otwartym dostępie}
!!!IIIF:
!!!ONB-nifc: UWAGA: str. 67-72
!!!AIN: 2 organ 2 soprn
!!!key: A
**kern	**kern	**dynam	**kern	**text	**dynam	**kern	**text	**dynam
*part4	*part3	*part3	*part2	*part2	*part2	*part1	*part1	*part1
*staff4	*staff3	*	*staff2	*staff2	*	*staff1	*staff1	*
*I"Organo	*I"ORGUE.	*	*I"2.d DESSUS.	*	*	*I"1.er DESSUS.	*	*
*	*I'org	*	*I'S 2	*	*	*I'S 1	*	*
*Iorgan	*Iorgan	*	*Isoprn	*	*	*Isoprn	*	*
*ICklav	*ICklav	*	*ICvox	*	*	*ICvox	*	*
*clefF4	*clefG2	*	*clefG2	*	*	*clefG2	*	*
*k[f#c#g#]	*k[f#c#g#]	*	*k[f#c#g#]	*	*	*k[f#c#g#]	*	*
*A:	*A:	*	*A:	*	*	*A:	*	*
*M4/4	*M4/4	*	*M4/4	*	*	*M4/4	*	*
*met(c)	*met(c)	*	*met(c)	*	*	*met(c)	*	*
!	!	!	!	!	!	!LO:TX:a:B:t=Moderato	!	!
!	!	!	!	!	!	!LO:TX:a:B:t=Moderato.	!	!
4r	8c#\L 8a	p	4r	.	.	4r	.	.
.	8e\J 8b	.	.	.	.	.	.	.
=1	=1	=1	=1	=1	=1	=1	=1	=1
*^	*	*	*	*	*	*	*	*
4AA/	2ryy	4e\ 4cc#	.	1r	.	.	1r	.	.
4E\	.	4e\ 4cc#	.	.	.	.	.	.	.
(8A/L	2AA\	(8e\L 8cc#	.	.	.	.	.	.	.
8G#/	.	8b\	.	.	.	.	.	.	.
8B/	.	8dd\	.	.	.	.	.	.	.
8A/J)	.	8cc#\J)	.	.	.	.	.	.	.
*v	*v	*	*	*	*	*	*	*	*
=2	=2	=2	=2	=2	=2	=2	=2	=2
([4AA\ [4E 4G#	(4e\ 4b	.	2r	.	.	2r	.	.
4AA\]) 4E] 4A	4c#\) 4a	.	.	.	.	.	.	.
2r	4r	.	4r	.	.	4r	.	.
!	!	!	!	!	!LO:DY:a	!	!	!LO:DY:a
.	(8c#\L 8a	.	8c#/	Quand	mf	8a\	Quand	mf
.	8e\J 8b	.	8e/	l`au-	.	8b\	l`au-	.
=3	=3	=3	=3	=3	=3	=3	=3	=3
4AA\ 4A	4a\) 4cc#	.	2a/	-rore	.	2cc#\	-rore	.
8.A\L	[4a\ [4cc#	.	.	.	.	.	.	.
16c#\Jk	.	.	.	.	.	.	.	.
4e\	8a\L] 8cc#]	.	8a/	au	.	8cc#\	au	.
.	8g#\ 8b	.	8g#/	ma-	.	8b\	ma-	.
4E\	8b\ 8dd	.	8b/	-tin	.	8dd\	-tin	.
.	8a\J 8cc#	.	8a/	se	.	8cc#\	se	.
!LO:LB:g=original	!LO:LB:g=original	!	!LO:LB:g=original	!	!	!LO:LB:g=original	!	!
=4	=4	=4	=4	=4	=4	=4	=4	=4
4AA\ 4A	4e\ 4a 4cc#	.	4a/	lè-	.	4cc#\	lè-	.
(8.E\L	4e\ 4g# 4b	.	4e/	-ve	.	4b\	-ve	.
16G#\Jk	.	.	.	.	.	.	.	.
4B\)	4r	.	4r	.	.	4r	.	.
4r	(8e\L 8b	.	(8e/L	La	.	(8b\L	La	.
.	8a\J 8cc#	.	8a/J)	.	.	8cc#\J)	.	.
=5	=5	=5	=5	=5	=5	=5	=5	=5
4EE\ 4E	4e\) 4b 4dd	.	4b\	ter-	.	4dd\	ter-	.
4r	4e\ 4b 4dd	.	4b\	-re	.	4dd\	-re	.
4E\ 4G#	4r	.	8b\	chan-	.	8dd\	chan-	.
.	.	.	8a\	-te	.	8cc#\	-te	.
4r	4e\ 4ee	.	8cc#\	le	.	8ee\	le	.
.	.	.	8b\	Sei-	.	8dd\	Sei-	.
=6	=6	=6	=6	=6	=6	=6	=6	=6
*	*^	*	*	*	*	*	*	*
4AA/	2cc#\ 2ee	2a\	.	2a\	-gneur	.	2cc#\	-gneur	.
(8.A\L	.	.	.	.	.	.	.	.	.
16c#\Jk	.	.	.	.	.	.	.	.	.
4e\)	4r	4ryy	.	4r	.	.	4r	.	.
4r	8a/L	4e\	.	8e/	Et	.	8a\	Et	.
.	8cc#/J	.	.	8a/	la	.	8cc#\	la	.
*	*v	*v	*	*	*	*	*	*	*
=7	=7	=7	=7	=7	=7	=7	=7	=7
4AA\ 4A	4e\ 4cc# 4ee	mf	4cc#\	mer	.	4ee\	mer	.
4r	4e\ 4cc# 4ee	.	4cc#\	se	.	4ee\	se	.
!	!	!	!	!	!LO:DY:a	!	!	!LO:DY:a
4AA/	(8cc#\L 8ee	.	(8cc#\L	bri-	<	(8ee\L	bri-	<
.	8b\ 8dd	.	8b\J)	-se	.	8dd\J)	-se	.
4A\	8dd\ 8ff#	.	8dd\	à	.	8ff#\	à	.
!	!	!	!	!	!LO:DY:a	!	!	!LO:DY:a
.	8cc#\J) 8ee	.	8cc#\	la	[ >	8ee\	la	[ >
!LO:LB:g=original	!LO:LB:g=original	!	!LO:LB:g=original	!	!	!LO:LB:g=original	!	!
=8	=8	=8	=8	=8	=8	=8	=8	=8
*	*^	*	*	*	*	*	*	*
([4AA\ [4E 4G#	2ee/	4b\ 4dd	.	4b\	grè-	.	4dd\	grè-	.
4AA\]) 4E] 4A	.	4a\ 4cc#	.	4a\	-ve	.	4cc#\	-ve	.
4r	4r	2ryy	.	4r	.	]	4r	.	]
!	!	!	!	!	!	!LO:DY:a	!	!	!
4DD\ 4D	(8f#\L 8dd	.	p	8f#/	En	p	8dd\	En	p
.	8d\J) 8b	.	.	8d/	lou-	.	8b\	lou-	.
*	*v	*v	*	*	*	*	*	*	*
=9	=9	=9	=9	=9	=9	=9	=9	=9
!	!	!	!	!	!LO:DY:a	!	!	!LO:DY:a
4EE\ 4E	4c#/ 4a	.	(4c#/	-ant	<	(4a\	-ant	<
4r	4e\ 4a 4cc#	.	4e/)	.	.	4cc#\)	.	.
4EE\ 4E	4r	.	8e/	le	[	8b\	le	[
!	!	!	!	!	!LO:DY:a	!	!	!LO:DY:a
.	.	.	8e/	di-	>	8g#\	di-	>
4r	4e\ 4g# 4dd	.	8e/	-vin	.	8b\	-vin	.
.	.	.	8g#/	sau-	]]	8b\	sau-	]]
=10	=10	=10	=10	=10	=10	=10	=10	=10
4AA\ 4A	4e/ 4a 4cc#	<	2a/	-veur	.	2a\	-veur	.
(8.e\L	(8.ee\L	[	.	.	.	.	.	.
16c#\Jk)	16cc#\Jk)	.	.	.	.	.	.	.
4A\	4a\	.	4r	.	.	4r	.	.
!	!	!	!	!	!LO:DY:a	!	!	!LO:DY:a
8E\L	8a\L	.	8e/	Et	f	8a\	Et	f
8C#\J	8cc#\J	.	8a/	la	.	8cc#\	la	.
!LO:PB:g=original	!LO:PB:g=original	!	!LO:PB:g=original	!	!	!LO:PB:g=original	!	!
=11	=11	=11	=11	=11	=11	=11	=11	=11
4AA\ 4A	4ee\	.	4cc#\	mer	.	4ee\	mer	.
4r	4e\ [4cc# [4ee	<	4cc#\	se	.	4ee\	se	.
4AA\ 4A	8cc#\L] 8ee]	.	(8cc#\L	bri-	.	(8ee\L	bri-	.
.	8b\ 8dd	[ >	8b\J)	-se	.	8dd\J)	-se	.
8D\L	8dd\ 8ff#	.	8dd\	à	.	8ff#\	à	.
8E\J	8cc#\J 8ee	]]	8cc#\	la	.	8ee\	la	.
=12	=12	=12	=12	=12	=12	=12	=12	=12
*^	*	*	*	*	*	*	*	*
(4E#X/	4E#\	4b\ 4dd	<	4b\	grè-	.	4dd\	grè-	.
(8.F#/L)	4.F#\	4a\ 4cc#	[ >	4a\	-ve	.	4cc#\	-ve	.
16A/Jk	.	.	.	.	.	.	.	.	.
8c#/)	.	4r	]	4r	.	.	4r	.	.
8r	8ryy	.	.	.	.	.	.	.	.
!	!	!	!	!	!	!LO:DY:a	!	!	!LO:DY:a
4D\	4DD\	(8f#\L 8dd	p	8f#/	En	p	8dd\	En	p
.	.	8d\J) 8b	.	8d/	lou-	.	8b\	lou-	.
*v	*v	*	*	*	*	*	*	*	*
=13	=13	=13	=13	=13	=13	=13	=13	=13
*	*^	*	*	*	*	*	*	*
!	!	!	!	!	!	!LO:DY:a	!	!	!LO:DY:a
2EEn\ 2En	4a/	4c#/	.	(4c#/	-ant	<	(4a\	-ant	<
.	4cc#/	4e/	.	4e/)	.	.	4cc#\)	.	.
2EE\ 2E	2g#/ 2b	4e\	.	8e/	le	.	8b\	le	.
.	.	.	.	8e/	di-	[	8g#\	di-	[
!	!LO:TX:b:i:t=rall.	!	!	!LO:TX:a:i:t=rall.	!	!	!LO:TX:a:i:t=rall.	!	!
.	.	4d\	.	8e/	-vin	.	8b\	-vin	.
.	.	.	.	8d/	sau-	.	8b\	sau-	.
*	*v	*v	*	*	*	*	*	*	*
=14	=14	=14	=14	=14	=14	=14	=14	=14
!	!	!	!	!	!LO:DY:a	!	!	!LO:DY:a
4AA\ 4A	2c#/ 2a	.	2c#/	-veur	p	2a\	-veur	p
(8.E\L	.	.	.	.	.	.	.	.
16C#\Jk	.	.	.	.	.	.	.	.
4AA\)	4r	.	2r	.	.	2r	.	.
4r	(8e\L	.	.	.	.	.	.	.
.	8ee\J)	.	.	.	.	.	.	.
!LO:LB:g=original	!LO:LB:g=original	!	!LO:LB:g=original	!	!	!LO:LB:g=original	!	!
=15	=15	=15	=15	=15	=15	=15	=15	=15
4EE/	4e/	f	1r	.	.	1r	.	.
8.E\L 8.G#	[4dd^\	.	.	.	.	.	.	.
16B\Jk	.	.	.	.	.	.	.	.
4d\	8dd\L]	.	.	.	.	.	.	.
.	8b\	.	.	.	.	.	.	.
4E\	8g#\	.	.	.	.	.	.	.
.	8b\J	.	.	.	.	.	.	.
=16	=16	=16	=16	=16	=16	=16	=16	=16
4A\ 4c#	4a\	.	2r	.	.	2r	.	.
4AA\ 4A	4a^<\ 4cc# 4ee 4aa	.	.	.	.	.	.	.
2r	4r	.	4r	.	.	4r	.	.
!	!	!	!	!	!LO:DY:a	!LO:TX:a:t=2.me STROPHE.	!	!LO:DY:a
.	(8c#\L 8a	.	(8c#/L	Tout	p	(8a\L	Tout	p
.	8e\J 8b	.	8e/J)	.	.	8b\J)	.	.
=17	=17	=17	=17	=17	=17	=17	=17	=17
4AA\ 4A	4e\) 4a 4cc#	p	4a/	ce	.	4cc#\	ce	.
4r	4e\ 4a 4cc#	.	4a/	qui	.	4cc#\	qui	.
4E\	4r	.	8a/	vit	.	8cc#\	vit	.
.	.	.	8g#/	dans	.	8b\	dans	.
4r	4e\ 4ee	.	8b/	la	.	8dd\	la	.
.	.	.	8a/	na-	.	8cc#\	na-	.
=18	=18	=18	=18	=18	=18	=18	=18	=18
4AA\ 4A	4a\ 4cc# 4ee	.	4a/	-tu-	.	4cc#\	-tu-	.
(8.E\L	4g#\ 4b 4ee	.	4e/	-re	.	4b\	-re	.
16G#\Jk	.	.	.	.	.	.	.	.
4B\)	4r	.	4r	.	.	4r	.	.
4r	(8e\L 8b	.	(8e/L	Sei	.	(8b\L	Sei-	.
.	8a\J 8cc#	.	8a/J)	.	.	8cc#\J)	.	.
!LO:LB:g=original	!LO:LB:g=original	!	!LO:LB:g=original	!	!	!LO:LB:g=original	!	!
=19	=19	=19	=19	=19	=19	=19	=19	=19
!	!	!	!	!	!LO:DY:a	!	!	!LO:DY:a
4EE/	4e\) 4b 4dd	<	4b\	-gneur	<	4dd\	-gneur	<
4r	4b\ 4dd	.	4b\	bé-	.	4dd\	bé-	.
4E\ 4e	8b\L 8dd	.	8b\	-nit	.	8dd\	-nit	.
!	!	!	!	!	!LO:DY:a	!	!	!LO:DY:a
.	8a\ 8cc#	[ >	8a\	ta	[ >	8cc#\	ta	[ >
4r	8cc#\ 8ee	.	8cc#\	sain-	.	8ee\	sain-	.
.	8b\J 8dd	]]	8b\	-te	]]	8dd\	-te	]]
=20	=20	=20	=20	=20	=20	=20	=20	=20
4A\	4a\ 4cc#	.	2a\	loi	.	2cc#\	loi	.
4AA\ 4A	(16cc#\LL	.	.	.	.	.	.	.
.	16ee\	.	.	.	.	.	.	.
.	16a\	.	.	.	.	.	.	.
.	16cc#\JJ	.	.	.	.	.	.	.
8E\L	16e/LL	.	4r	.	.	4r	.	.
.	16a/	.	.	.	.	.	.	.
8C#\J	16c#/	.	.	.	.	.	.	.
.	16e/JJ)	.	.	.	.	.	.	.
8AA/	8A/	.	(8e/L	Seul	.	(8a\L	Seul	.
8r	8r	.	8a/J)	.	.	8cc#\J)	.	.
=21	=21	=21	=21	=21	=21	=21	=21	=21
!	!	!	!	!	!LO:DY:a	!	!	!LO:DY:a
4A\ 4c#	8r	f	4cc#\	l`hom-	f	4ee\	l`hom-	f
.	8e'\L	.	.	.	.	.	.	.
4r	8ee'\	.	4cc#\	-me	.	4ee\	-me	.
.	8e'\J	.	.	.	.	.	.	.
8r	8cc#\L 8ee	.	8cc#\	com-	.	8ee\	com-	.
8AA'\L	8b\ 8dd	.	8b\	-blé	.	8dd\	-blé	.
8A'\	8dd\ 8ff#	.	8dd\	sans	.	8ff#\	sans	.
8AA'\J	8cc#\J 8ee	.	8cc#\	me-	.	8ee\	me-	.
!LO:LB:g=original	!LO:LB:g=original	!	!LO:LB:g=original	!	!	!LO:LB:g=original	!	!
=22	=22	=22	=22	=22	=22	=22	=22	=22
*	*^	*	*	*	*	*	*	*
([4AA\ [4E 4G#	2ee/	((>4b\ 4dd	.	4dd\	-su-	.	4dd\	-su-	.
4AA\]) 4E] 4A	.	4a\)) 4cc#	.	4cc#\	-re	.	4cc#\	-re	.
4r	4r	2ryy	.	4r	.	.	4r	.	.
!	!	!	!	!	!	!LO:DY:a	!	!	!LO:DY:a
4DD\ 4D	(8f#\L 8dd	.	p	8f#/	N`au-	p	8dd\	N`au-	p
.	8d\J) 8b	.	.	8d/	-rait-	.	8b\	-rait-	.
*	*v	*v	*	*	*	*	*	*	*
=23	=23	=23	=23	=23	=23	=23	=23	=23
4EE\ 4E	8c#\L 8a	.	4c#/	-il	.	4a\	-il	.
.	(8e\	.	.	.	.	.	.	.
4r	8a\	.	4e^>/	pas	.	4cc#^\	pas	.
.	8cc#\J	.	.	.	.	.	.	.
4E\ 4G#	8b\L	.	(8g#/L	d`a-	.	(8b\L	d`a-	.
.	8e\	.	8e/J)	.	.	8g#\J)	.	.
4E\ 4B	8ee\	.	8g#/	-mour	.	8b\	-mour	.
.	8dd\J)	.	8g#/	pour	.	8b\	pour	.
=24	=24	=24	=24	=24	=24	=24	=24	=24
4A\	(16cc#\LL	.	2a/	toi	.	2a\	toi	.
.	16a\	.	.	.	.	.	.	.
.	16b\	.	.	.	.	.	.	.
.	16cc#\JJ	.	.	.	.	.	.	.
4E\	16dd\LL	.	.	.	.	.	.	.
.	16ee\	.	.	.	.	.	.	.
.	16ff#\	.	.	.	.	.	.	.
.	16gg#\JJ)	.	.	.	.	.	.	.
8AA/	8aa\	.	4r	.	.	4r	.	.
8r	8r	.	.	.	.	.	.	.
!	!	!	!	!	!LO:DY:a	!	!	!LO:DY:a
4r	(8e\L 8a	.	(8e/L	Seul	<	(8a\L	Seul	<
.	8cc#\J	.	8a/J)	.	[[	8cc#\J)	.	[[
!LO:LB:g=original	!LO:LB:g=original	!	!LO:LB:g=original	!	!	!LO:LB:g=original	!	!
=25	=25	=25	=25	=25	=25	=25	=25	=25
8r	4e\) 4cc# 4ee	.	4cc#\	l`hom-	.	4ee\	l`hom-	.
8AA\L	.	.	.	.	.	.	.	.
8A\	4e\ 4cc# 4ee	.	4cc#\	-me	.	4ee\	-me	.
8AA\J	.	.	.	.	.	.	.	.
8C#\	8cc#\L 8ee	.	8cc#\	com-	.	8ee\	com-	.
4D^\	8b\ 8dd	.	8b\	-blé	.	8dd\	-blé	.
.	8dd\ 8ff#	.	8dd\	sans	.	8ff#\	sans	.
8E\	8cc#\J 8ee	.	8cc#\	me-	.	8ee\	me-	.
=26	=26	=26	=26	=26	=26	=26	=26	=26
((4EE#X\ 4E#X	4b\ 4dd	>	4b\	-su-	.	4dd\	-su-	.
4FF#\)) 4F#	(16cc#\LL	]	4a\	-re	.	4cc#\	-re	.
.	16a\	.	.	.	.	.	.	.
.	16ff#\	.	.	.	.	.	.	.
.	16cc#\JJ)	.	.	.	.	.	.	.
4r	8aa'\	.	4r	.	.	4r	.	.
.	8r	.	.	.	.	.	.	.
!	!	!	!	!	!LO:DY:a	!	!	!LO:DY:a
4DD\ 4D	(8dd\L 8ff#	p	8f#/	N`au-	p	8dd\	N`au-	p
.	8b\J) 8dd	.	8d/	-rait-	.	8b\	-rait-	.
=27	=27	=27	=27	=27	=27	=27	=27	=27
4EEn\ 4En	(8a\L 8cc#	.	4c#/	-il	.	4a\	-il	.
.	8e\	.	.	.	.	.	.	.
4r	8ee\	.	4e^>/	pas	.	4cc#^\	pas	.
.	8e\J)	p	.	.	.	.	.	.
4EE\ 4E	8ee\L	.	(8g#/L	d`a-	.	(8b\L	d`a-	.
!	!LO:TX:b:i:t=rall.	!	!	!	!	!	!	!
!	!LO:TX:a:t=P:problem:# above	!	!	!	!	!	!	!
.	(8ee\	.	8e/J)	.	.	8g#\J)	.	.
!	!	!	!LO:TX:a:i:t=rall.	!	!	!LO:TX:a:i:t=rall.	!	!
4E\ 4B 4d	8ff#\	.	8e/	-mour	.	8b\	-mour	.
.	8gg#\J)	.	8d/	pour	.	8b\	pour	.
!LO:LB:g=original	!LO:LB:g=original	!	!LO:LB:g=original	!	!	!LO:LB:g=original	!	!
=28	=28	=28	=28	=28	=28	=28	=28	=28
!	!LO:TX:b:B:t=a tempo.	!	!	!	!	!	!	!
2A\ 2c#	8aa\L	f	2c#/	toi	.	2a/	toi	.
.	16ee\L	.	.	.	.	.	.	.
.	16cc#\JJ	.	.	.	.	.	.	.
.	8a\L	.	.	.	.	.	.	.
.	8a\J	.	.	.	.	.	.	.
2r	16a\LL	.	2r	.	.	2r	.	.
.	16b\	.	.	.	.	.	.	.
.	16a\	.	.	.	.	.	.	.
.	16b\JJ	.	.	.	.	.	.	.
.	16cc#\LL	.	.	.	.	.	.	.
.	16dd\	.	.	.	.	.	.	.
.	16cc#\	.	.	.	.	.	.	.
.	16dd\JJ	.	.	.	.	.	.	.
=29||	=29||	=29||	=29||	=29||	=29||	=29||	=29||	=29||
*	*^	*	*	*	*	*	*	*
(16E\LL	(16g#\LL	2ee/	f	1r	.	.	1r	.	.
16F#\	16a\	.	.	.	.	.	.	.	.
16E\	16g#\	.	.	.	.	.	.	.	.
16F#\JJ	16a\JJ	.	.	.	.	.	.	.	.
16G#\LL	16b\LL	.	.	.	.	.	.	.	.
16A\	16cc#\	.	.	.	.	.	.	.	.
16G#\	16b\	.	.	.	.	.	.	.	.
16A\JJ	16cc#\JJ	.	.	.	.	.	.	.	.
16B\LL	16dd\LL	2r	.	.	.	.	.	.	.
16c#\	16ee\	.	.	.	.	.	.	.	.
16B\	16dd\	.	.	.	.	.	.	.	.
16c#\JJ)	16ee\JJ)	.	.	.	.	.	.	.	.
8d'\L	8ff#'\L	.	.	.	.	.	.	.	.
8e'\J	8gg#'\J	.	.	.	.	.	.	.	.
*	*v	*v	*	*	*	*	*	*	*
=30	=30	=30	=30	=30	=30	=30	=30	=30
*^	*	*	*	*	*	*	*	*
2f#/	(>16F#\LL	2a\ 2aa	.	1r	.	.	1r	.	.
.	16G#\	.	.	.	.	.	.	.	.
.	16F#\	.	.	.	.	.	.	.	.
.	16G#\JJ	.	.	.	.	.	.	.	.
.	16A\LL	.	.	.	.	.	.	.	.
.	16B\	.	.	.	.	.	.	.	.
.	16A\	.	.	.	.	.	.	.	.
.	16B\JJ)	.	.	.	.	.	.	.	.
(4B#X\	2ryy	(16gg#\LL	>	.	.	.	.	.	.
.	.	16dd#X\	.	.	.	.	.	.	.
.	.	16gg#\	.	.	.	.	.	.	.
.	.	16ff#\JJ)	.	.	.	.	.	.	.
4c#\)	.	8ee\L	]	.	.	.	.	.	.
.	.	8cc#\J	.	.	.	.	.	.	.
!LO:PB:g=original	!LO:PB:g=original	!LO:PB:g=original	!	!LO:PB:g=original	!	!	!LO:PB:g=original	!	!
*v	*v	*	*	*	*	*	*	*	*
=31	=31	=31	=31	=31	=31	=31	=31	=31
16d\LL	(8b\L	.	2r	.	.	2r	.	.
16c#\	.	.	.	.	.	.	.	.
16d\	16dd\L	.	.	.	.	.	.	.
[16B\JJ	16ff#\JJ)	.	.	.	.	.	.	.
4E\ 4B]	(8ee\L	.	.	.	.	.	.	.
.	8g#\J)	.	.	.	.	.	.	.
4A\ 4c#	4a\	.	4r	.	.	4r	.	.
!	!	!	!	!	!	!LO:TX:a:t=3.me STROPHE.	!	!
4AA\ 4E	(8c#/L 8a	p	(8c#/L	Et	.	(8a\L	Et	.
.	8e/J 8b	.	8e/J)	.	.	8b\J)	.	.
=32	=32	=32	=32	=32	=32	=32	=32	=32
4AA\ 4E	4a\) 4cc#	.	4a/	quand	.	4cc#\	quand	.
4AA\ 4E	(16cc#/LL	.	4a/	à	.	4cc#\	à	.
.	16a/)	.	.	.	.	.	.	.
.	16e'/	.	.	.	.	.	.	.
.	16e'/JJ	.	.	.	.	.	.	.
4AA\ 4E	16e'/LL	.	8a/	l`au-	.	8cc#\	l`au-	.
.	16e'/	.	.	.	.	.	.	.
.	16e'/	.	8g#/	-be	.	8b\	-be	.
.	16e'/JJ	.	.	.	.	.	.	.
([8AA\L [8E 8G#	4e^/	.	8b/	je	.	8dd\	je	.
8AA\J]) 8E] 8A	.	.	8a/	m`é-	.	8cc#\	m`é-	.
=33	=33	=33	=33	=33	=33	=33	=33	=33
4EE\ 4E	4e/	.	4a/	-veil-	.	4cc#\	-veil-	.
4E\ 4G#	(16b/LL	.	4e/	-le	.	4b\	-le	.
.	16g#/)	.	.	.	.	.	.	.
.	16e'/	.	.	.	.	.	.	.
.	16e'/JJ	.	.	.	.	.	.	.
4E\ 4G#	8e'/L	.	4r	.	.	4r	.	.
.	8e'/J	.	.	.	.	.	.	.
(8G#\L	4e^/	.	(8e/L	Je	.	(8b\L	Je	.
8E\J	.	.	8a/J)	.	.	8cc#\J)	.	.
!LO:LB:g=original	!LO:LB:g=original	!	!LO:LB:g=original	!	!	!LO:LB:g=original	!	!
=34	=34	=34	=34	=34	=34	=34	=34	=34
*^	*	*	*	*	*	*	*	*
4EE/)	4ryy	8e/L	.	4b\	cher-	.	4dd\	cher-	.
.	.	16g#/L	.	.	.	.	.	.	.
.	.	16b/JJ	.	.	.	.	.	.	.
4G#\	4E\	(16dd/LL	.	4b\	-che au	.	4dd\	-che au	.
.	.	16b/)	.	.	.	.	.	.	.
.	.	16e'/	.	.	.	.	.	.	.
.	.	16e'/JJ	.	.	.	.	.	.	.
4G#\	4E\	8e'/L	.	8b\	Ciél	.	8dd\	Ciél	.
.	.	8e'/J	.	8a\	mon	.	8cc#\	mon	.
8A/L	4E\	4e^/	.	8cc#\	doux	.	8ee\	doux	.
8B/J	.	.	.	8b\	Sei-	.	8dd\	Sei-	.
*v	*v	*	*	*	*	*	*	*	*
=35	=35	=35	=35	=35	=35	=35	=35	=35
4A\ 4c#	4e/	.	2a\	-gneur	.	2cc#\	-gneur	.
4AA\ 4E	(16cc#/LL	.	.	.	.	.	.	.
.	16a/)	.	.	.	.	.	.	.
.	16e'/	<	.	.	.	.	.	.
.	16e'/JJ	.	.	.	.	.	.	.
4AA\ 4E	(16a/LL	.	4r	.	.	4r	.	.
.	16e/)	.	.	.	.	.	.	.
.	16c#'/	.	.	.	.	.	.	.
.	16e'/JJ	.	.	.	.	.	.	.
4AA\ 4E	16a/LL	.	8e/	Il	.	8a\	Il	.
.	16e/	.	.	.	.	.	.	.
!	!	!	!	!	!LO:DY:a	!	!	!LO:DY:a
.	16cc#/	.	8a/	est	f	8b\	est	f
.	16a/JJ	[[	.	.	.	.	.	.
=36	=36	=36	=36	=36	=36	=36	=36	=36
4AA\ 4C# 4E 4A	4ee\	.	2cc#\	là	.	2ee\	là	.
4AA\ 4C# 4E 4A	(16ee\LL	.	.	.	.	.	.	.
.	16cc#\	.	.	.	.	.	.	.
.	16a\	.	.	.	.	.	.	.
.	16e\JJ)	.	.	.	.	.	.	.
4AA\ 4E 4A	8c#/	.	8cc#\	près	.	8ee\	près	.
.	8r	.	8b\	de	.	8dd\	de	.
4AA\ 4E 4A	(8dd\L 8ff#	.	8dd\	moi	.	8ff#\	moi	.
.	8cc#\J) 8ee	.	8cc#\	qui	.	8ee\	qui	.
!LO:LB:g=original	!LO:LB:g=original	!	!LO:LB:g=original	!	!	!LO:LB:g=original	!	!
=37	=37	=37	=37	=37	=37	=37	=37	=37
*^	*	*	*	*	*	*	*	*
!	!	!	!	!	!	!LO:DY:a	!	!	!LO:DY:a
4E\ 4G#	4AA\	4e\ 4b 4dd 4ee	>	4b\	veil-	>	4dd\	veil-	>
(16A/LL	4AA\ 4A	4e\ 4a 4cc# 4ee	.	4a\	-le	.	4cc#\	-le	.
16E/	.	.	.	.	.	.	.	.	.
16C#/	.	.	.	.	.	.	.	.	.
16E/JJ)	.	.	.	.	.	.	.	.	.
8AA/	4ryy	4r	]	4r	.	]	4r	.	]
8r	.	.	.	.	.	.	.	.	.
!	!	!	!	!	!	!LO:DY:a	!	!	!LO:DY:a
4D\	4DD\	(16dd\LL	p	(8f#/L	Quand	p	(8dd\L	Quand	p
.	.	16f#\	.	.	.	.	.	.	.
.	.	16b\	.	8d/J)	.	.	8b\J)	.	.
.	.	16d\JJ)	.	.	.	.	.	.	.
*v	*v	*	*	*	*	*	*	*	*
=38	=38	=38	=38	=38	=38	=38	=38	=38
*	*^	*	*	*	*	*	*	*
4EE\ 4E	(16c#/LL	2.ryy	.	4c#/	je	.	4a\	je	.
.	16e/	.	.	.	.	.	.	.	.
.	16c#/	.	.	.	.	.	.	.	.
.	16e/JJ	.	.	.	.	.	.	.	.
4E\ 4A	16a\LL	.	.	4e^>/	m`en-	.	4cc#^\	m`en-	.
.	16cc#\	.	.	.	.	.	.	.	.
.	16a\	.	.	.	.	.	.	.	.
.	16cc#\JJ)	.	.	.	.	.	.	.	.
4E\ 4G#	4ee\	.	.	8e/	-dors	.	8b\	-dors	.
.	.	.	.	8e/	près	.	8g#\	près	.
4E\ 4B	4gg#/	8ee\L	.	8g#/	de	.	8b\	de	.
.	.	8dd\J	.	8g#/	son	.	8b\	son	.
*	*v	*v	*	*	*	*	*	*	*
=39	=39	=39	=39	=39	=39	=39	=39	=39
4AA\ 4A	8cc#\L 8aa	f	2a/	coeur	.	2a\	coeur	.
.	(16gg#\L	.	.	.	.	.	.	.
.	16ff#\JJ	.	.	.	.	.	.	.
4r	16ee\LL	.	.	.	.	.	.	.
.	16dd\	.	.	.	.	.	.	.
.	16cc#\	.	.	.	.	.	.	.
.	16b\JJ)	.	.	.	.	.	.	.
4A\ 4c#	4a\	.	4r	.	.	4r	.	.
!	!	!	!	!	!LO:DY:a	!	!	!LO:DY:a
8A\L	8e\L 8a	p	8e/	Il	f	8a\	Il	f
8E\J	8cc#\J	.	8a/	est	.	8cc#\	est	.
!LO:LB:g=original	!LO:LB:g=original	!	!LO:LB:g=original	!	!	!LO:LB:g=original	!	!
=40	=40	=40	=40	=40	=40	=40	=40	=40
4AA\	4e\ 4cc# 4ee	.	2cc#\	là	.	2ee\	là	.
8A\L	[4e\ [4cc# [4ee	.	.	.	.	.	.	.
16E\L	.	.	.	.	.	.	.	.
16C#\JJ	.	.	.	.	.	.	.	.
4AA\	8e\L] 8cc#] 8ee]	<	8cc#\	près	.	8ee\	près	.
.	8b\ 8dd	.	8b\	de	.	8dd\	de	.
8D\L	8dd\ 8ff#	.	8dd\	moi	.	8ff#\	moi	.
8E\J	8cc#\J 8ee	[[	8cc#\	qui	.	8ee\	qui	.
=41	=41	=41	=41	=41	=41	=41	=41	=41
(4E#X\	(4b\ 4dd	>	4b\	veil-	.	4dd\	veil-	.
4F#\)	4a\) 4cc#	.	4a\	-le	.	4cc#\	-le	.
4r	4r	]	4r	.	.	4r	.	.
!	!	!	!	!	!LO:DY:a	!	!	!LO:DY:a
4DD\ 4D	(8f#\L 8dd	p	(8f#/L	Quand	p	(8dd\L	Quand	p
.	8d\J) 8b	.	8d/J)	.	.	8b\J)	.	.
=42	=42	=42	=42	=42	=42	=42	=42	=42
*^	*	*	*	*	*	*	*	*
4En\	4EEn\	8c#\L 8a	.	4c#/	je	.	4a\	je	.
.	.	(8e\	.	.	.	.	.	.	.
4r	4ryy	8a\	.	4e^>/	m`en-	.	4cc#^\	m`en-	.
.	.	8cc#\J	.	.	.	.	.	.	.
4.e/	2E\	8ee\L)	.	8e/	-dors	.	8b\	-dors	.
!	!	!LO:TX:b:i:t=col canto.	!	!	!	!	!	!	!
!	!	!LO:TX:a:t=P:problem:# above	!	!	!	!	!	!	!
.	.	(8ee\	.	8e/	près	.	8g#\	près	.
!	!	!	!	!LO:TX:a:i:t=rall.	!	!	!LO:TX:a:i:t=rall.	!	!
.	.	8ff#\	.	8e/	de	.	8b\	de	.
8d/	.	8gg#\J)	.	8d/	son	.	8b\	son	.
!LO:LB:g=original	!LO:LB:g=original	!LO:LB:g=original	!	!LO:LB:g=original	!	!	!LO:LB:g=original	!	!
*v	*v	*	*	*	*	*	*	*	*
=43	=43	=43	=43	=43	=43	=43	=43	=43
!	!LO:TX:b:B:t=a tempo.	!	!	!	!	!	!	!
2A\ 2c#	(8cc#\L 8aa	.	2c#/	coeur	.	2a/	coeur	.
.	8cc#\) 8ee	.	.	.	.	.	.	.
.	(8cc#\ 8ee	.	.	.	.	.	.	.
.	8a\J) 8cc#	.	.	.	.	.	.	.
2r	(8a\L 8cc#	.	2r	.	.	2r	.	.
.	8e\) 8a	.	.	.	.	.	.	.
.	(8e\ 8g#	.	.	.	.	.	.	.
.	8c#\J) 8e	.	.	.	.	.	.	.
=44	=44	=44	=44	=44	=44	=44	=44	=44
4EE/	(8d\L	.	1r	.	.	1r	.	.
.	16e\L	.	.	.	.	.	.	.
.	16f#\JJ	.	.	.	.	.	.	.
4r	16g#\LL	.	.	.	.	.	.	.
.	16a\	.	.	.	.	.	.	.
.	16b\	.	.	.	.	.	.	.
.	16cc#\JJ	.	.	.	.	.	.	.
(((2E\ (2B 2d	16dd\LL	.	.	.	.	.	.	.
.	16ee\	.	.	.	.	.	.	.
.	16dd\	.	.	.	.	.	.	.
.	16ee\JJ)	.	.	.	.	.	.	.
.	8ff#'\L	.	.	.	.	.	.	.
.	8g#'\J	.	.	.	.	.	.	.
=45	=45	=45	=45	=45	=45	=45	=45	=45
4A\))) 4c#	4a\	.	2r	.	.	2r	.	.
4AA\ 4A	4a\ 4cc# 4ee 4aa	.	.	.	.	.	.	.
!	!	!	!	!	!	!LO:TX:a:t=4.me STROPHE.	!	!
2r	4r	.	4r	.	.	4r	.	.
!	!	!	!	!	!LO:DY:a	!	!	!LO:DY:a
.	8c#/L 8a	p	8c#/	O	p	8a\	O	p
.	8e/J 8b	.	8e/	mon	.	8b\	mon	.
!LO:LB:g=original	!LO:LB:g=original	!	!LO:LB:g=original	!	!	!LO:LB:g=original	!	!
=46	=46	=46	=46	=46	=46	=46	=46	=46
!	!LO:TUP:a	!	!	!	!	!	!	!
4AA\ 4A	12a\L 12cc#	.	2a/	Dieu	.	2cc#\	Dieu	.
.	12e\	.	.	.	.	.	.	.
.	12ee\	.	.	.	.	.	.	.
4r	12e\	.	.	.	.	.	.	.
.	12ee\	.	.	.	.	.	.	.
.	12e\J	.	.	.	.	.	.	.
8AA\L	8ee\	.	8a/	du	.	8cc#\	du	.
8E\	8r	.	8g#/	soir	.	8b\	soir	.
!	!LO:TX:b:i:t=piu	!	!	!	!	!	!	!
.	8qee/	.	.	.	.	.	.	.
8G#\	8b\L 8dd	.	8b/	à	.	8dd\	à	.
8A\J	8a\J 8cc#	f	8a/	l`au-	.	8cc#\	l`au-	.
=47	=47	=47	=47	=47	=47	=47	=47	=47
!	!LO:TX:b:i:t=poco a poco	!	!	!	!	!	!	!
!	!LO:TUP:a	!	!	!	!	!	!	!
4E\	12a\L 12cc#	.	4a/	-ro-	.	4cc#\	-ro-	.
.	12e\	.	.	.	.	.	.	.
.	12ee\	.	.	.	.	.	.	.
4EE/	12g#\ 12b	.	4e/	-re	.	4b\	-re	.
.	12e\	.	.	.	.	.	.	.
!	!	!LO:HP:t=crescendo.	!	!	!	!	!	!
.	12ee\J	<	.	.	.	.	.	.
4E\	4e\	.	4r	.	.	4r	.	.
4r	8e\L 8b	.	(8e/L	Des	.	(8b\L	Des	.
!	!	!	!	!	!	!	!	!LO:DY:a
.	8a\J 8cc#	.	8a/J)	.	<	8cc#\J)	.	<
=48	=48	=48	=48	=48	=48	=48	=48	=48
*	*Xtuplet	*	*	*	*	*	*	*
4EE/	12b\L 12dd	.	4b\	frè-	.	4dd\	frè-	.
.	12e\	.	.	.	.	.	.	.
.	12ee\	.	.	.	.	.	.	.
4E\ 4G#	12e\	.	4b\	-res	.	4dd\	-res	.
.	12ee\	.	.	.	.	.	.	.
.	12e\J	.	.	.	.	.	.	.
8EE/	8ee\	.	8b\	nous	[	8dd\	nous	[
!	!	!	!	!	!LO:DY:a	!	!	!LO:DY:a
8r	8r	.	8a\	ont	>	8cc#\	ont	>
8E\L	8cc#\L 8ee	.	8cc#\	dit	.	8ee\	dit	.
8G#\J	8b\J 8dd	.	8b\	a-	]]	8dd\	a-	]]
!LO:PB:g=original	!LO:PB:g=original	!	!LO:PB:g=original	!	!	!LO:PB:g=original	!	!
=49	=49	=49	=49	=49	=49	=49	=49	=49
*	*tuplet	*	*	*	*	*	*	*
!	!LO:TUP:a	!	!	!	!	!	!	!
4A\	12a\L 12cc#	.	2a/	-dieu	.	2cc#\	-dieu	.
.	12e\	.	.	.	.	.	.	.
.	12ee\	.	.	.	.	.	.	.
8E\L	12e\	.	.	.	.	.	.	.
.	12ee\	.	.	.	.	.	.	.
8C#\J	.	.	.	.	.	.	.	.
.	12e\J	.	.	.	.	.	.	.
4AA/	8ee\	.	4r	.	.	4r	.	.
.	8r	.	.	.	.	.	.	.
!	!	!	!	!	!LO:DY:a	!	!	!LO:DY:a
4r	8e\L 8a	.	(8e/L	Nous	f	(8a\L	Nous	f
.	8a\J 8cc#	.	8a/J)	.	.	8cc#\J)	.	.
=50	=50	=50	=50	=50	=50	=50	=50	=50
!	!LO:TUP:a	!	!	!	!	!	!	!
4AAA/ 4AA	12cc#\L 12ee	f	4cc#\	qui	.	4ee\	qui	.
.	12e\	.	.	.	.	.	.	.
.	12ee\	.	.	.	.	.	.	.
!LO:TUP:a	!	!	!	!	!	!	!	!
12A\L 12c#	12e\	.	4cc#\	veil-	.	4ee\	veil-	.
12A\ 12c#	12ee\	.	.	.	.	.	.	.
12A\J 12c#	12e\J	.	.	.	.	.	.	.
8A\ 8c#	8ee\	.	8cc#\	-lons	.	8ee\	-lons	.
8r	8r	.	8b\	pri-	.	8dd\	pri-	.
4AA\ 4A	8dd\L 8ff#	.	8dd\	-ons	.	8ff#\	-ons	.
.	8cc#\J 8ee	.	8cc#\	en-	.	8ee\	en-	.
=51	=51	=51	=51	=51	=51	=51	=51	=51
!	!LO:TUP:a	!	!	!	!	!	!	!
4AA\ 4E 4G#	12b\L 12dd	.	4b\	-co-	.	4dd\	-co-	.
.	12e\	.	.	.	.	.	.	.
.	12ee\	.	.	.	.	.	.	.
4AA\ 4E 4A	12a\ 12cc#	.	4a\	-re	.	4cc#\	-re	.
.	12e\	.	.	.	.	.	.	.
.	12ee\J	.	.	.	.	.	.	.
4r	8a\ 8cc#	.	4r	.	.	4r	.	.
.	8r	.	.	.	.	.	.	.
4DD/ 4D	8f#\L 8dd	.	8f#/	Cé-	.	8dd\	Cé-	.
.	8d\J 8b	.	8d/	-lé-	.	8b\	-lé-	.
!LO:LB:g=original	!LO:LB:g=original	!	!LO:LB:g=original	!	!	!LO:LB:g=original	!	!
=52	=52	=52	=52	=52	=52	=52	=52	=52
!	!LO:TUP:a	!	!	!	!	!	!	!
4EE/	12c#\L 12a	.	4e/	-brons	.	4a\	-brons	.
.	12e\	.	.	.	.	.	.	.
.	12ee\	.	.	.	.	.	.	.
4E\	12a\ 12cc#	.	4a/	ta	.	4cc#\	ta	.
.	12e\	.	.	.	.	.	.	.
.	12ee\J	.	.	.	.	.	.	.
!	!LO:TUP:a	!	!	!	!	!	!	!
4G#\	12b\L 12dd	.	4g#/	gloi-	.	4b\	gloi-	.
.	12e\	.	.	.	.	.	.	.
.	12ee\	.	.	.	.	.	.	.
4E\	12g#\ 12b	.	8e/	-re	.	8g#\	-re	.
.	12e\	.	.	.	.	.	.	.
.	.	.	8g#/	grand	.	8b\	grand	.
.	12ee\J	.	.	.	.	.	.	.
=53	=53	=53	=53	=53	=53	=53	=53	=53
4AA\ 4A	12c#/L 12a	.	2a/	Dieu	.	2a\	Dieu	.
.	12e/	.	.	.	.	.	.	.
.	12e/J	<	.	.	.	.	.	.
*	*Xtuplet	*	*	*	*	*	*	*
4E\	12e/L	.	.	.	.	.	.	.
.	12c#/ 12e	.	.	.	.	.	.	.
.	12c#/J 12e	.	.	.	.	.	.	.
4C#/	12c#/L 12e	.	4r	.	.	4r	.	.
.	12e/ 12a	.	.	.	.	.	.	.
.	12e/J 12a	.	.	.	.	.	.	.
!	!	!	!	!	!LO:DY:a	!	!	!LO:DY:a
4AA/	12e/L 12a	.	(8e/L	Nous	f	(8a\L	Nous	f
.	12a/ 12cc#	.	.	.	.	.	.	.
.	.	.	8a/J)	.	.	8cc#\J)	.	.
.	12a/J 12cc#	[[	.	.	.	.	.	.
=54	=54	=54	=54	=54	=54	=54	=54	=54
4AAA/ 4AA	12cc#/L 12ee	f	4cc#\	qui	.	4ee\	qui	.
.	12e/	.	.	.	.	.	.	.
.	12e/J	.	.	.	.	.	.	.
!LO:TUP:a	!	!	!	!	!LO:DY:a	!	!	!LO:DY:a
12A\L	12cc#/L 12ee	.	4cc#\	veil-	<	4ee\	veil-	<
12c#\	12e/	.	.	.	.	.	.	.
12A\J	12e/J	.	.	.	.	.	.	.
4AA/	8cc#\L 8ee	.	8cc#\	-lons	.	8ee\	-lons	.
.	8b\ 8dd	.	8b\	pri-	.	8dd\	pri-	.
!	!	!	!	!	!LO:DY:a	!	!	!LO:DY:a
8D\L	8dd\ 8ff#	.	8dd\	-ons	[ >	8ff#\	-ons	[ >
8E\J	8cc#\J 8ee	.	8cc#\	en-	]]	8ee\	en-	]]
!LO:LB:g=original	!LO:LB:g=original	!	!LO:LB:g=original	!	!	!LO:LB:g=original	!	!
=55	=55	=55	=55	=55	=55	=55	=55	=55
*	*tuplet	*	*	*	*	*	*	*
(4E#X\	(4b\ 4dd	>	4b\	-co-	.	4dd\	-co-	.
!	!LO:TUP:a	!	!	!	!	!	!	!
4F#\)	12a\L) 12cc#	]	4a\	-re	.	4cc#\	-re	.
.	12f#\ 12a	.	.	.	.	.	.	.
.	12ff#\J	.	.	.	.	.	.	.
4FF#/	4f#/	.	4r	.	.	4r	.	.
!	!	!	!	!	!LO:DY:a	!	!	!LO:DY:a
4DD/ 4D	12f#/L 12dd	p	8f#/	Cé-	p	8dd\	Cé-	p
.	12d/	.	.	.	.	.	.	.
!	!	!	!	!	!LO:DY:a	!	!	!LO:DY:a
.	.	.	8d/	-lé-	<	8b\	-lé-	<
.	12b/J	.	.	.	.	.	.	.
=56	=56	=56	=56	=56	=56	=56	=56	=56
*^	*	*	*	*	*	*	*	*
4En\	4EEn\	12a/L	.	4c#/	-brons	.	4a\	-brons	.
.	.	12c#/	.	.	.	.	.	.	.
.	.	12e/J	.	.	.	.	.	.	.
!LO:TUP:a	!	!	!	!	!	!	!	!	!
*	*	*Xtuplet	*	*	*	*	*	*	*
12e\L	4ryy	12a\L	.	4e^/	ta	.	4cc#^\	ta	.
12c#\	.	12cc#\	.	.	.	.	.	.	.
12A\J	.	12ee\J	.	.	.	.	.	.	.
!	!	!	!	!	!	!LO:DY:a	!	!	!LO:DY:a
*Xtuplet	*	*	*	*	*	*	*	*	*
12G#/L	2E\	12b\L	.	4e/	gloi-	[ f	(8b\L	gloi-	[ f
12A/	.	12cc#\	.	.	.	.	.	.	.
.	.	.	.	.	.	.	8g#\J)	.	.
12B/J	.	12dd\J	.	.	.	.	.	.	.
12c#/L	.	12ee\L	.	8e/	-re	.	8b\	-re	.
12d/	.	12ff#\	.	.	.	.	.	.	.
.	.	.	.	8d/	grand	.	8b\	grand	.
12E/J	.	12gg#\J	.	.	.	.	.	.	.
*v	*v	*	*	*	*	*	*	*	*
=57	=57	=57	=57	=57	=57	=57	=57	=57
4A\	4cc#\ 4aa	f	2c#^>/	Dieu	.	2a^\	Dieu	.
4AA\ 4A	4c#/ 4e 4a	.	.	.	.	.	.	.
4AAA/ 4AA	4c#/ 4e 4a	.	2r	.	.	2r	.	.
4r	4r	.	.	.	.	.	.	.
==	==	==	==	==	==	==	==	==
*-	*-	*-	*-	*-	*-	*-	*-	*-
!!!RDF**kern: > = above
!!!RDF**kern: < = below
!!!system-decoration: [(s1,s2)][(s3,s4)]
!!!ENC: Filip Voros
!!!END: 2022-08-10
!!!ENC: Julita Ruszuk
!!!END: 2022-09-05
!!!YEC: Copyright 2022 Narodowy Instytut Fryderyka Chopina (https://polishscores.org)
!!!YEM: License CC-BY-4.0 (https://creativecommons.org/licenses/by/4.0)
